src/images/pages/trade-explanation/zh_cn/down.svg

<?xml version="1.0" encoding="UTF-8"?>
<svg width="299px" height="197px" viewBox="0 0 299 197" version="1.1" xmlns="http://www.w3.org/2000/svg" xmlns:xlink="http://www.w3.org/1999/xlink">
    <!-- Generator: Sketch 53.1 (72631) - https://sketchapp.com -->
    <title>down</title>
    <desc>Created with Sketch.</desc>
    <g id="Page-1" stroke="none" stroke-width="1" fill="none" fill-rule="evenodd">
        <g id="down" fill-rule="nonzero">
            <polygon id="Path" fill="#F1F2F2" points="0 0 299 0 299 197 0 197"></polygon>
            <path d="M1.98671096,1.9798995 L1.98671096,195.020101 L297.013289,195.020101 L297.013289,1.9798995 L1.98671096,1.9798995 Z M299,0 L299,197 L0,197 L0,0 L299,0 Z" id="Path" fill="#C2C2C2"></path>
            <path d="M5,53.8937051 L5,52.6865475 L295,52.6865475 L295,53.8937051 L5,53.8937051 Z M5,74.2212672 L5,73.0141095 L295,73.0141095 L295,74.2212672 L5,74.2212672 Z M5,94.5113934 L5,93.3042358 L295,93.3042358 L295,94.5113934 L5,94.5113934 Z M5,135.129081 L5,133.921924 L295,133.921924 L295,135.129081 L5,135.129081 Z M5,155.419208 L5,154.21205 L295,154.21205 L295,155.419208 L5,155.419208 Z M5,175.709335 L5,174.502177 L295,174.502177 L295,175.709335 L5,175.709335 Z M39.4203806,33 L40.6286516,33 L40.6286516,193 L39.4203806,193 L39.4203806,33 Z M76.1287678,33 L77.3370388,33 L77.3370388,193 L76.1287678,193 L76.1287678,33 Z M112.799735,33 L114.008006,33 L114.008006,193 L112.799735,193 L112.799735,33 Z M149.508122,33 L150.716393,33 L150.716393,193 L149.508122,193 L149.508122,33 Z M186.17909,33 L187.387361,33 L187.387361,193 L186.17909,193 L186.17909,33 Z M222.850058,33 L224.058329,33 L224.058329,193 L222.850058,193 L222.850058,33 Z M259.558445,33 L260.766716,33 L260.766716,193 L259.558445,193 L259.558445,33 Z" id="Shape" fill="#DFDEDE"></path>
            <polygon id="Path" fill="#C2C2C2" points="1 30 1 28 298 28 298 30"></polygon>
            <path d="M188.521984,146.307379 L153.10252,146.307379 L147.647544,138 L142.192568,146.307379 L106.773104,146.307379 C104.121379,146.307379 102,148.469573 102,151.162833 L102,176.236703 C102,178.929962 104.159261,181.092157 106.773104,181.092157 L188.559866,181.092157 C191.211591,181.092157 193.33297,178.929962 193.33297,176.236703 L193.33297,151.162833 C193.33297,148.469573 191.173709,146.307379 188.521984,146.307379 Z" id="Path" fill="#E88024"></path>
            <polygon id="Path" fill="#2A3052" points="5.26159903 116.411393 5.26159903 114.926326 293.612573 114.926326 293.612573 116.411393"></polygon>
            <path d="M75.1471752,141.428851 C74.523214,142.126053 73.471924,142.235714 72.7175089,141.682291 L39.254469,117.134507 C38.4450141,116.540708 38.2701905,115.403146 38.8639897,114.593691 C39.4577888,113.784236 40.595351,113.609412 41.404806,114.203211 L73.5380371,137.775476 L107.057762,100.32116 C107.772989,99.5219785 109.02107,99.5125499 109.748289,100.300834 L141.524331,134.745128 L184.70331,92.1202033 C185.590968,91.2439358 187.077293,91.5015982 187.618208,92.6255161 L229.637241,179.933043 L257.752096,155.093558 C258.504429,154.428871 259.653152,154.499923 260.317839,155.252257 C260.982526,156.00459 260.911474,157.153312 260.15914,157.817999 L230.244406,184.247678 C229.341207,185.045655 227.925641,184.759725 227.402983,183.67374 L185.446103,96.4953548 L142.74023,138.653244 C142.008654,139.375433 140.824247,139.347755 140.127204,138.592181 L108.432679,104.236249 L75.1471752,141.428851 Z" id="Path" fill="#2A3052"></path>
            <ellipse id="Oval" fill="#FFFFFF" opacity="0.6" cx="40.3296375" cy="115.668859" rx="8.06728138" ry="8.49574874"></ellipse>
            <path d="M40.3296375,125.376422 C35.1905082,125.376422 31.0505419,121.016575 31.0505419,115.668859 C31.0505419,110.321143 35.1905082,105.961296 40.3296375,105.961296 C45.4687668,105.961296 49.6087331,110.321143 49.6087331,115.668859 C49.6087331,121.016575 45.4687668,125.376422 40.3296375,125.376422 Z M40.3296375,122.952794 C44.1013811,122.952794 47.1851047,119.705288 47.1851047,115.668859 C47.1851047,111.63243 44.1013811,108.384925 40.3296375,108.384925 C36.5578939,108.384925 33.4741703,111.63243 33.4741703,115.668859 C33.4741703,119.705288 36.5578939,122.952794 40.3296375,122.952794 Z" id="Oval" fill="#E88024"></path>
            <ellipse id="Oval" fill="#FFFFFF" opacity="0.6" cx="258.955618" cy="155.854879" rx="8.06728138" ry="8.49574874"></ellipse>
            <path d="M258.955618,165.563432 C253.816489,165.563432 249.676522,161.203585 249.676522,155.855869 C249.676522,150.508153 253.816489,146.148306 258.955618,146.148306 C264.094747,146.148306 268.234714,150.508153 268.234714,155.855869 C268.234714,161.203585 264.094747,165.563432 258.955618,165.563432 Z M258.955618,163.139804 C262.727362,163.139804 265.811085,159.892298 265.811085,155.855869 C265.811085,151.81944 262.727362,148.571935 258.955618,148.571935 C255.183874,148.571935 252.100151,151.81944 252.100151,155.855869 C252.100151,159.892298 255.183874,163.139804 258.955618,163.139804 Z" id="Oval" fill="#E88024"></path>
            <g id="Group" opacity="0.9" transform="translate(251.346000, 129.166000)" fill="#6D6E71">
                <path d="M14.403,12.37 L15.288,12.37 L15.288,5.237 L16.458,7.327 L17.013,6.467 C15.97,5.112 15.395,4.382 15.288,4.279 L15.298,3.504 L16.708,3.504 L16.708,2.644 L15.298,2.644 L15.288,0.21 L14.403,0.21 L14.403,2.643 L12.716,2.643 L12.716,3.503 L14.296,3.503 C14.199,4.469 12.97,7.233 12.332,7.904 C12.344,7.908 12.487,8.259 12.762,8.957 C13.503,7.629 13.897,6.832 14.403,5.361 L14.403,12.369 L14.403,12.37 Z M0.661,12.421 L0.661,0.971 L9.624,0.971 L9.624,12.421 L8.607,12.421 L8.607,11.571 L1.662,11.571 L1.662,12.421 L0.662,12.421 L0.661,12.421 Z M8.696,1.783 L1.663,1.783 L1.663,4.058 L8.696,4.058 L8.696,1.783 Z M8.673,4.888 L1.686,4.888 L1.686,7.23 L8.673,7.23 L8.673,4.888 Z M8.66,8.151 L1.7,8.151 L1.7,10.621 L8.66,10.621 L8.66,8.151 Z M17.43,0.972 L24.763,0.972 L24.763,1.772 L22.563,1.772 L22.563,2.765 L24.544,2.765 L24.544,5.882 L17.741,5.882 L17.741,2.765 L19.743,2.765 L19.743,1.772 L17.43,1.772 L17.43,0.972 Z M21.776,1.833 L20.486,1.833 L20.486,2.783 L21.776,2.783 L21.776,1.833 Z M22.534,3.538 L22.534,5.158 L23.687,5.158 L23.687,3.538 L22.534,3.538 Z M21.761,3.528 L20.538,3.528 L20.538,5.155 L21.761,5.155 L21.761,3.528 Z M19.801,3.507 L18.627,3.507 L18.627,5.17 L19.801,5.17 L19.801,3.507 Z M24.175,6.509 L24.175,7.282 L18.028,7.282 L18.028,6.509 L24.175,6.509 Z M24.763,8.295 L24.763,9.034 L21.469,9.034 L21.469,12.364 L20.652,12.364 L20.652,9.034 L17.44,9.034 L17.44,8.294 L24.763,8.295 Z" id="Shape"></path>
                <path d="M22.47,10.163 C22.748,9.883 22.937,9.705 23.036,9.627 C23.382,9.89 24.576,11.055 25.011,11.713 C24.861,11.873 24.647,12.086 24.366,12.349 C24.151,11.925 23.519,11.196 22.47,10.163 Z M19.142,9.356 C19.432,9.604 19.634,9.776 19.748,9.87 C19.028,10.826 18.303,11.57 17.576,12.104 C17.3774744,11.8855062 17.18959,11.6575754 17.013,11.421 C18.161,10.491 18.87,9.804 19.142,9.356 Z" id="Shape"></path>
            </g>
            <path d="M254.18,183.5 L254.18,184.52 C252.65,185.075 250.925,185.525 248.975,185.885 L248.84,184.835 C250.88,184.505 252.65,184.055 254.18,183.5 Z M251.405,172.7 L252.41,173.09 C251.645,175.04 250.865,176.6 250.085,177.77 C250.79,177.68 251.495,177.575 252.215,177.455 C252.5,176.915 252.8,176.36 253.1,175.79 L254.045,176.135 C252.68,178.67 251.54,180.47 250.625,181.55 C251.765,181.325 252.89,181.025 254,180.65 L254,181.61 C252.38,182.165 250.82,182.54 249.32,182.735 L249.035,181.76 C249.23,181.67 249.395,181.565 249.53,181.445 C250.1,180.86 250.805,179.87 251.645,178.46 C250.79,178.595 249.935,178.715 249.065,178.835 L248.795,177.845 C248.96,177.77 249.11,177.635 249.245,177.44 C250.085,176.06 250.805,174.485 251.405,172.7 Z M254,174.605 L257.585,174.605 L257.585,172.79 L258.68,172.79 L258.68,174.605 L262.25,174.605 L262.25,175.655 L258.68,175.655 L258.68,177.875 L261.815,177.875 L261.815,178.925 L254.495,178.925 L254.495,177.875 L257.585,177.875 L257.585,175.655 L254,175.655 L254,174.605 Z M261.38,180.425 L261.38,186.455 L260.33,186.455 L260.33,185.735 L256.04,185.735 L256.04,186.455 L254.975,186.455 L254.975,180.425 L261.38,180.425 Z M256.04,184.715 L260.33,184.715 L260.33,181.445 L256.04,181.445 L256.04,184.715 Z M264.08,174.29 L269.945,174.29 L269.945,172.79 L271.055,172.79 L271.055,174.29 L276.89,174.29 L276.89,175.325 L271.055,175.325 L271.055,176.795 L275.78,176.795 L275.78,181.04 L271.97,181.04 C273.05,182.57 274.88,183.92 277.43,185.12 L276.695,186.05 C274.04,184.565 272.18,182.9 271.1,181.04 L271.055,181.04 L271.055,186.485 L269.945,186.485 L269.945,181.04 L269.9,181.04 C268.76,183.08 266.87,184.76 264.215,186.08 L263.585,185.09 C266.075,184.04 267.89,182.69 269.015,181.04 L265.25,181.04 L265.25,176.795 L269.945,176.795 L269.945,175.325 L264.08,175.325 L264.08,174.29 Z M274.7,180.05 L274.7,177.815 L271.055,177.815 L271.055,180.05 L274.7,180.05 Z M269.945,180.05 L269.945,177.815 L266.33,177.815 L266.33,180.05 L269.945,180.05 Z" id="结束" fill="#2A3052"></path>
            <path d="M23.68,131.645 L35.365,131.645 L35.365,132.695 L32.86,132.695 L32.86,136.67 L36.145,136.67 L36.145,137.705 L32.86,137.705 L32.86,144.35 L31.765,144.35 L31.765,137.705 L27.43,137.705 C27.295,139.25 27.01,140.525 26.56,141.545 C25.99,142.805 25.045,143.78 23.725,144.47 L23.14,143.54 C24.355,142.85 25.21,141.935 25.69,140.795 C26.005,139.925 26.215,138.905 26.335,137.705 L22.87,137.705 L22.87,136.67 L26.395,136.67 C26.395,136.475 26.41,136.295 26.41,136.145 L26.41,132.695 L23.68,132.695 L23.68,131.645 Z M27.52,132.695 L27.52,136.145 C27.52,136.325 27.505,136.505 27.505,136.67 L31.765,136.67 L31.765,132.695 L27.52,132.695 Z M39.46,130.685 L40.525,130.775 C40.39,131.795 40.255,132.74 40.12,133.61 L42.34,133.61 L42.34,134.24 C42.22,136.67 41.8,138.755 41.08,140.525 C41.785,141.26 42.37,141.92 42.82,142.52 L42.1,143.36 C41.68,142.805 41.185,142.205 40.6,141.575 C40,142.715 39.265,143.705 38.365,144.545 L37.69,143.69 C38.575,142.88 39.295,141.92 39.865,140.78 C39.265,140.165 38.62,139.535 37.93,138.875 C38.29,137.57 38.605,136.16 38.875,134.645 L37.675,134.645 L37.675,133.61 L39.055,133.61 C39.205,132.665 39.34,131.69 39.46,130.685 Z M40.315,139.745 C40.885,138.245 41.215,136.55 41.32,134.645 L39.955,134.645 C39.67,136.22 39.385,137.525 39.085,138.56 C39.52,138.965 39.925,139.355 40.315,139.745 Z M50.26,138.125 L50.26,144.515 L49.225,144.515 L49.225,143.615 L44.635,143.615 L44.635,144.515 L43.6,144.515 L43.6,138.125 L50.26,138.125 Z M44.635,142.595 L49.225,142.595 L49.225,139.115 L44.635,139.115 L44.635,142.595 Z M43.015,136.775 L42.85,135.8 C43.72,135.35 44.8,133.67 46.09,130.73 L47.11,131.075 C46.21,133.025 45.325,134.57 44.425,135.725 C46.105,135.62 47.71,135.44 49.225,135.2 C48.805,134.375 48.385,133.61 47.95,132.92 L48.88,132.47 C49.705,133.79 50.485,135.23 51.205,136.805 L50.2,137.285 C50.02,136.88 49.855,136.49 49.675,136.115 C47.68,136.4 45.46,136.625 43.015,136.775 Z" id="开始" fill="#2A3052"></path>
            <path d="M16.17,10.165 L21.105,10.165 L21.105,15.265 L19.68,15.265 L19.68,17.215 L21.21,17.215 L21.21,18.685 L19.68,18.685 L19.68,20.8 C20.19,20.65 20.685,20.485 21.165,20.335 L21.165,21.895 C19.635,22.405 17.865,22.885 15.885,23.32 L15.435,21.82 L16.08,21.685 L16.08,16.54 L17.46,16.54 L17.46,21.385 C17.73,21.325 17.985,21.265 18.225,21.205 L18.225,15.265 L16.17,15.265 L16.17,10.165 Z M19.62,13.825 L19.62,11.605 L17.67,11.605 L17.67,13.825 L19.62,13.825 Z M23.415,13.72 C23.205,14.47 22.965,15.145 22.695,15.775 L21.405,14.965 C22.02,13.585 22.455,12.115 22.725,10.57 L24.06,10.855 C23.97,11.335 23.895,11.785 23.805,12.22 L24.78,12.22 L24.78,9.73 L26.25,9.73 L26.25,12.22 L28.5,12.22 L28.5,13.72 L26.235,13.72 C26.19,14.605 26.13,15.43 26.04,16.18 L29.07,16.18 L29.07,17.695 L26.49,17.695 C26.865,19.63 27.885,21.145 29.535,22.24 L28.665,23.635 C27.075,22.42 26.01,20.86 25.455,18.97 C25.335,19.33 25.215,19.66 25.095,19.975 C24.405,21.535 23.31,22.735 21.78,23.575 L20.985,22.315 C22.455,21.415 23.445,20.275 23.955,18.925 C24.075,18.535 24.195,18.13 24.3,17.695 L21.585,17.695 L21.585,16.18 L24.57,16.18 C24.66,15.415 24.735,14.59 24.765,13.72 L23.415,13.72 Z" id="跌" fill="#000000"></path>
            <path d="M149.53,163.146 L149.53,169.504 L148.386,169.504 L148.386,164.334 L145.328,164.334 L145.328,169.46 L144.162,169.46 L144.162,163.146 L149.53,163.146 Z M146.868,170.428 C146.78,170.648 146.692,170.846 146.604,171.022 C146.12,171.902 145.35,172.584 144.25,173.068 L143.59,172.034 C144.602,171.572 145.306,170.978 145.724,170.274 C146.076,169.504 146.274,168.514 146.318,167.282 L146.318,165.368 L147.374,165.368 L147.374,167.282 C147.352,168.03 147.286,168.712 147.176,169.306 C148.012,170.032 148.716,170.758 149.288,171.484 L148.452,172.32 C148.034,171.704 147.506,171.088 146.868,170.428 Z M137.276,154.346 L146.34,154.346 C146.12,153.862 145.9,153.444 145.658,153.048 L147.242,152.784 C147.462,153.246 147.66,153.774 147.836,154.346 L156.724,154.346 L156.724,155.49 L140.73,155.49 L140.73,156.634 L155.228,156.634 L155.228,157.756 L139.256,157.756 L139.256,155.49 L137.276,155.49 L137.276,154.346 Z M139.872,158.79 L154.062,158.79 L154.062,162.068 L139.872,162.068 L139.872,158.79 Z M152.522,161.034 L152.522,159.824 L141.412,159.824 L141.412,161.034 L152.522,161.034 Z M139.542,167.018 C139.52,167.568 139.476,168.096 139.432,168.58 L141.852,168.58 L141.852,167.018 L139.542,167.018 Z M141.852,165.984 L141.852,164.4 L139.542,164.4 L139.542,165.984 L141.852,165.984 Z M139.278,169.614 C139.014,171.044 138.53,172.254 137.848,173.266 L136.858,172.364 C137.782,170.956 138.244,169.196 138.266,167.04 L138.266,163.19 L143.106,163.19 L143.106,171.66 C143.106,172.65 142.578,173.156 141.544,173.156 L140.642,173.156 L140.312,171.968 C140.598,172.012 140.884,172.034 141.148,172.034 C141.61,172.034 141.852,171.748 141.852,171.22 L141.852,169.614 L139.278,169.614 Z M155.91,172.914 L155.14,172.914 C154.348,172.914 153.974,172.474 153.974,171.638 L153.974,164.444 L151.884,164.444 L151.884,166.71 C151.884,168.338 151.774,169.592 151.554,170.472 C151.312,171.352 150.806,172.276 150.036,173.244 L149.046,172.386 C149.706,171.594 150.146,170.868 150.366,170.186 C150.586,169.482 150.696,168.316 150.696,166.71 L150.696,163.19 L155.162,163.19 L155.162,171.264 C155.162,171.594 155.294,171.77 155.58,171.77 L155.712,171.77 C155.844,171.77 155.954,171.66 156.02,171.44 C156.086,171.22 156.152,170.494 156.218,169.24 L157.23,169.592 C157.098,171.088 156.966,172.012 156.812,172.386 C156.636,172.738 156.35,172.914 155.91,172.914 Z M152.764,166.402 C153.16,167.282 153.534,168.206 153.842,169.218 L153.006,169.592 C152.676,168.492 152.324,167.524 151.928,166.688 L152.764,166.402 Z M160.64,155.292 L162.686,155.292 L162.356,166.776 L160.992,166.776 L160.64,155.292 Z M161.652,168.382 C162.048,168.382 162.356,168.492 162.62,168.756 C162.862,168.998 162.994,169.306 162.994,169.68 C162.994,170.076 162.862,170.384 162.62,170.626 C162.356,170.868 162.026,171 161.652,171 C161.278,171 160.97,170.868 160.728,170.626 C160.464,170.362 160.332,170.054 160.332,169.68 C160.332,169.306 160.464,168.998 160.728,168.756 C160.97,168.492 161.278,168.382 161.652,168.382 Z" id="赢!" fill="#FFFFFF"></path>
        </g>
    </g>
</svg>

<svg width="299" height="197" xmlns="http://www.w3.org/2000/svg"><g fill-rule="nonzero" fill="none"><path fill="#F1F2F2" d="M0 0h299v197H0z"/><path d="M1.987 1.98v193.04h295.026V1.98H1.987zM299 0v197H0V0h299z" fill="#C2C2C2"/><path d="M5 53.894v-1.207h290v1.207H5zM5 74.22v-1.207h290v1.207H5zm0 20.29v-1.207h290v1.207H5zm0 40.618v-1.207h290v1.207H5zm0 20.29v-1.207h290v1.207H5zm0 20.29v-1.207h290v1.207H5zM39.42 33h1.209v160H39.42V33zm36.709 0h1.208v160h-1.208V33zm36.67 0h1.209v160H112.8V33zm36.71 0h1.207v160h-1.208V33zm36.67 0h1.208v160h-1.208V33zm36.671 0h1.208v160h-1.208V33zm36.708 0h1.209v160h-1.209V33z" fill="#DFDEDE"/><path fill="#C2C2C2" d="M1 30v-2h297v2z"/><path d="M188.522 146.307h-35.42L147.649 138l-5.455 8.307h-35.42c-2.652 0-4.773 2.163-4.773 4.856v25.074c0 2.693 2.16 4.855 4.773 4.855h81.787c2.652 0 4.773-2.162 4.773-4.855v-25.074c0-2.693-2.16-4.856-4.811-4.856z" fill="#E88024"/><path fill="#2A3052" d="M5.262 116.411v-1.485h288.35v1.485z"/><path d="M75.147 141.429a1.818 1.818 0 0 1-2.43.253l-33.463-24.547a1.818 1.818 0 1 1 2.15-2.932l32.134 23.572 33.52-37.454a1.818 1.818 0 0 1 2.69-.02l31.776 34.444 43.18-42.625a1.818 1.818 0 0 1 2.914.506l42.02 87.307 28.114-24.84a1.818 1.818 0 0 1 2.407 2.725l-29.915 26.43a1.818 1.818 0 0 1-2.841-.574l-41.957-87.179-42.706 42.158a1.818 1.818 0 0 1-2.613-.06l-31.694-34.357-33.286 37.193z" fill="#2A3052"/><ellipse fill="#FFF" opacity=".6" cx="40.33" cy="115.669" rx="8.067" ry="8.496"/><path d="M40.33 125.376c-5.14 0-9.28-4.36-9.28-9.707 0-5.348 4.14-9.708 9.28-9.708 5.139 0 9.279 4.36 9.279 9.708s-4.14 9.707-9.28 9.707zm0-2.423c3.771 0 6.855-3.248 6.855-7.284 0-4.037-3.084-7.284-6.855-7.284-3.772 0-6.856 3.247-6.856 7.284 0 4.036 3.084 7.284 6.856 7.284z" fill="#E88024"/><ellipse fill="#FFF" opacity=".6" cx="258.956" cy="155.855" rx="8.067" ry="8.496"/><path d="M258.956 165.563c-5.14 0-9.28-4.36-9.28-9.707 0-5.348 4.14-9.708 9.28-9.708 5.139 0 9.279 4.36 9.279 9.708s-4.14 9.707-9.28 9.707zm0-2.423c3.771 0 6.855-3.248 6.855-7.284 0-4.037-3.084-7.284-6.855-7.284-3.772 0-6.856 3.247-6.856 7.284 0 4.036 3.084 7.284 6.856 7.284z" fill="#E88024"/><g opacity=".9" fill="#6D6E71"><path d="M265.749 141.536h.885v-7.133l1.17 2.09.555-.86c-1.043-1.355-1.618-2.085-1.725-2.188l.01-.775h1.41v-.86h-1.41l-.01-2.434h-.885v2.433h-1.687v.86h1.58c-.097.966-1.326 3.73-1.964 4.401.012.004.155.355.43 1.053.741-1.328 1.135-2.125 1.641-3.596v7.009zm-13.742.051v-11.45h8.963v11.45h-1.017v-.85h-6.945v.85h-1.001zm8.035-10.638h-7.033v2.275h7.033v-2.275zm-.023 3.105h-6.987v2.342h6.987v-2.342zm-.013 3.263h-6.96v2.47h6.96v-2.47zm8.77-7.179h7.333v.8h-2.2v.993h1.981v3.117h-6.803v-3.117h2.002v-.993h-2.313v-.8zm4.346.861h-1.29v.95h1.29v-.95zm.758 1.705v1.62h1.153v-1.62h-1.153zm-.773-.01h-1.223v1.627h1.223v-1.627zm-1.96-.021h-1.174v1.663h1.174v-1.663zm4.374 3.002v.773h-6.147v-.773h6.147zm.588 1.786v.739h-3.294v3.33h-.817v-3.33h-3.212v-.74l7.323.001z"/><path d="M273.816 139.329c.278-.28.467-.458.566-.536.346.263 1.54 1.428 1.975 2.086-.15.16-.364.373-.645.636-.215-.424-.847-1.153-1.896-2.186zm-3.328-.807c.29.248.492.42.606.514-.72.956-1.445 1.7-2.172 2.234a9.192 9.192 0 0 1-.563-.683c1.148-.93 1.857-1.617 2.129-2.065z"/></g><path d="M254.18 183.5v1.02c-1.53.555-3.255 1.005-5.205 1.365l-.135-1.05c2.04-.33 3.81-.78 5.34-1.335zm-2.775-10.8l1.005.39c-.765 1.95-1.545 3.51-2.325 4.68.705-.09 1.41-.195 2.13-.315.285-.54.585-1.095.885-1.665l.945.345c-1.365 2.535-2.505 4.335-3.42 5.415a26.668 26.668 0 0 0 3.375-.9v.96c-1.62.555-3.18.93-4.68 1.125l-.285-.975c.195-.09.36-.195.495-.315.57-.585 1.275-1.575 2.115-2.985-.855.135-1.71.255-2.58.375l-.27-.99c.165-.075.315-.21.45-.405.84-1.38 1.56-2.955 2.16-4.74zm2.595 1.905h3.585v-1.815h1.095v1.815h3.57v1.05h-3.57v2.22h3.135v1.05h-7.32v-1.05h3.09v-2.22H254v-1.05zm7.38 5.82v6.03h-1.05v-.72h-4.29v.72h-1.065v-6.03h6.405zm-5.34 4.29h4.29v-3.27h-4.29v3.27zm8.04-10.425h5.865v-1.5h1.11v1.5h5.835v1.035h-5.835v1.47h4.725v4.245h-3.81c1.08 1.53 2.91 2.88 5.46 4.08l-.735.93c-2.655-1.485-4.515-3.15-5.595-5.01h-.045v5.445h-1.11v-5.445h-.045c-1.14 2.04-3.03 3.72-5.685 5.04l-.63-.99c2.49-1.05 4.305-2.4 5.43-4.05h-3.765v-4.245h4.695v-1.47h-5.865v-1.035zm10.62 5.76v-2.235h-3.645v2.235h3.645zm-4.755 0v-2.235h-3.615v2.235h3.615zM23.68 131.645h11.685v1.05H32.86v3.975h3.285v1.035H32.86v6.645h-1.095v-6.645H27.43c-.135 1.545-.42 2.82-.87 3.84-.57 1.26-1.515 2.235-2.835 2.925l-.585-.93c1.215-.69 2.07-1.605 2.55-2.745.315-.87.525-1.89.645-3.09H22.87v-1.035h3.525c0-.195.015-.375.015-.525v-3.45h-2.73v-1.05zm3.84 1.05v3.45c0 .18-.015.36-.015.525h4.26v-3.975H27.52zm11.94-2.01l1.065.09a128.68 128.68 0 0 1-.405 2.835h2.22v.63c-.12 2.43-.54 4.515-1.26 6.285.705.735 1.29 1.395 1.74 1.995l-.72.84a23.161 23.161 0 0 0-1.5-1.785c-.6 1.14-1.335 2.13-2.235 2.97l-.675-.855a9.862 9.862 0 0 0 2.175-2.91 79.046 79.046 0 0 0-1.935-1.905 46.84 46.84 0 0 0 .945-4.23h-1.2v-1.035h1.38c.15-.945.285-1.92.405-2.925zm.855 9.06c.57-1.5.9-3.195 1.005-5.1h-1.365c-.285 1.575-.57 2.88-.87 3.915.435.405.84.795 1.23 1.185zm9.945-1.62v6.39h-1.035v-.9h-4.59v.9H43.6v-6.39h6.66zm-5.625 4.47h4.59v-3.48h-4.59v3.48zm-1.62-5.82l-.165-.975c.87-.45 1.95-2.13 3.24-5.07l1.02.345c-.9 1.95-1.785 3.495-2.685 4.65a51.085 51.085 0 0 0 4.8-.525c-.42-.825-.84-1.59-1.275-2.28l.93-.45a37.871 37.871 0 0 1 2.325 4.335l-1.005.48c-.18-.405-.345-.795-.525-1.17-1.995.285-4.215.51-6.66.66z" fill="#2A3052"/><path d="M16.17 10.165h4.935v5.1H19.68v1.95h1.53v1.47h-1.53V20.8c.51-.15 1.005-.315 1.485-.465v1.56c-1.53.51-3.3.99-5.28 1.425l-.45-1.5.645-.135V16.54h1.38v4.845c.27-.06.525-.12.765-.18v-5.94H16.17v-5.1zm3.45 3.66v-2.22h-1.95v2.22h1.95zm3.795-.105c-.21.75-.45 1.425-.72 2.055l-1.29-.81c.615-1.38 1.05-2.85 1.32-4.395l1.335.285c-.09.48-.165.93-.255 1.365h.975V9.73h1.47v2.49h2.25v1.5h-2.265c-.045.885-.105 1.71-.195 2.46h3.03v1.515h-2.58c.375 1.935 1.395 3.45 3.045 4.545l-.87 1.395c-1.59-1.215-2.655-2.775-3.21-4.665-.12.36-.24.69-.36 1.005-.69 1.56-1.785 2.76-3.315 3.6l-.795-1.26c1.47-.9 2.46-2.04 2.97-3.39.12-.39.24-.795.345-1.23h-2.715V16.18h2.985c.09-.765.165-1.59.195-2.46h-1.35z" fill="#000"/><path d="M149.53 163.146v6.358h-1.144v-5.17h-3.058v5.126h-1.166v-6.314h5.368zm-2.662 7.282c-.088.22-.176.418-.264.594-.484.88-1.254 1.562-2.354 2.046l-.66-1.034c1.012-.462 1.716-1.056 2.134-1.76.352-.77.55-1.76.594-2.992v-1.914h1.056v1.914a13.42 13.42 0 0 1-.198 2.024 16.19 16.19 0 0 1 2.112 2.178l-.836.836c-.418-.616-.946-1.232-1.584-1.892zm-9.592-16.082h9.064a11.86 11.86 0 0 0-.682-1.298l1.584-.264c.22.462.418.99.594 1.562h8.888v1.144H140.73v1.144h14.498v1.122h-15.972v-2.266h-1.98v-1.144zm2.596 4.444h14.19v3.278h-14.19v-3.278zm12.65 2.244v-1.21h-11.11v1.21h11.11zm-12.98 5.984c-.022.55-.066 1.078-.11 1.562h2.42v-1.562h-2.31zm2.31-1.034V164.4h-2.31v1.584h2.31zm-2.574 3.63c-.264 1.43-.748 2.64-1.43 3.652l-.99-.902c.924-1.408 1.386-3.168 1.408-5.324v-3.85h4.84v8.47c0 .99-.528 1.496-1.562 1.496h-.902l-.33-1.188c.286.044.572.066.836.066.462 0 .704-.286.704-.814v-1.606h-2.574zm16.632 3.3h-.77c-.792 0-1.166-.44-1.166-1.276v-7.194h-2.09v2.266c0 1.628-.11 2.882-.33 3.762-.242.88-.748 1.804-1.518 2.772l-.99-.858c.66-.792 1.1-1.518 1.32-2.2.22-.704.33-1.87.33-3.476v-3.52h4.466v8.074c0 .33.132.506.418.506h.132c.132 0 .242-.11.308-.33.066-.22.132-.946.198-2.2l1.012.352c-.132 1.496-.264 2.42-.418 2.794-.176.352-.462.528-.902.528zm-3.146-6.512c.396.88.77 1.804 1.078 2.816l-.836.374c-.33-1.1-.682-2.068-1.078-2.904l.836-.286zm7.876-11.11h2.046l-.33 11.484h-1.364l-.352-11.484zm1.012 13.09c.396 0 .704.11.968.374.242.242.374.55.374.924 0 .396-.132.704-.374.946a1.402 1.402 0 0 1-.968.374 1.26 1.26 0 0 1-.924-.374 1.28 1.28 0 0 1-.396-.946c0-.374.132-.682.396-.924.242-.264.55-.374.924-.374z" fill="#FFF"/></g></svg>
